X:165
T:Rioters. THO2.165, The
O:London
M:C
L:1/8
Q:1/2=80
B:Thompson's Compleat Coll. of 200 Favourite Country Dances, vol.2,1765
Z:Transcribed and edited by Fynn Titford-Mock, 2007
Z:abc's:AK/Fiddler's Companion/VMP 2009
K:G
GABc defg|dBAG AFED|GABc defg|dBcA G2 [G,2G2]:|
|:dBdB dBdB|cAcA cAcA|dBdB dBdc|BdcB TB2 A2:|
|:gdcB gdcB|ecBA ecBA|gdcB gdcB|AcDF G2 [G,2G2]:|

